humanity-icon-theme/Humanity/actions/22/help-hint.svg

<?xml version="1.0" encoding="UTF-8" standalone="no"?>
<!-- Created with Inkscape (http://www.inkscape.org/) -->
<svg
   xmlns:svg="http://www.w3.org/2000/svg"
   xmlns="http://www.w3.org/2000/svg"
   xmlns:xlink="http://www.w3.org/1999/xlink"
   version="1.0"
   width="22"
   height="22"
   id="svg2">
  <defs
     id="defs4">
    <linearGradient
       id="linearGradient2490-182-124">
      <stop
         id="stop2788"
         style="stop-color:#1f4b6a;stop-opacity:1"
         offset="0" />
      <stop
         id="stop2790"
         style="stop-color:#4083c2;stop-opacity:1"
         offset="1" />
    </linearGradient>
    <linearGradient
       x1="18.379412"
       y1="44.980297"
       x2="18.379412"
       y2="3.0816143"
       id="linearGradient2412"
       xlink:href="#linearGradient2490-182-124"
       gradientUnits="userSpaceOnUse"
       gradientTransform="matrix(0.5160413,0,0,0.5160413,-1.3849489,-1.3850332)" />
    <linearGradient
       id="linearGradient3242-187-536">
      <stop
         id="stop2778"
         style="stop-color:#8badea;stop-opacity:1"
         offset="0" />
      <stop
         id="stop2780"
         style="stop-color:#6396cd;stop-opacity:1"
         offset="0.26238" />
      <stop
         id="stop2782"
         style="stop-color:#3b7caf;stop-opacity:1"
         offset="0.66093999" />
      <stop
         id="stop2784"
         style="stop-color:#194c70;stop-opacity:1"
         offset="1" />
    </linearGradient>
    <radialGradient
       cx="23.895569"
       cy="3.9900031"
       r="20.397499"
       fx="23.895569"
       fy="3.9900031"
       id="radialGradient2410"
       xlink:href="#linearGradient3242-187-536"
       gradientUnits="userSpaceOnUse"
       gradientTransform="matrix(0,1.2316137,-1.6257082,0,17.486623,-29.720825)" />
    <linearGradient
       id="linearGradient4873">
      <stop
         id="stop4875"
         style="stop-color:#ffffff;stop-opacity:1"
         offset="0" />
      <stop
         id="stop4877"
         style="stop-color:#ffffff;stop-opacity:0"
         offset="1" />
    </linearGradient>
    <linearGradient
       x1="63.397362"
       y1="-12.489107"
       x2="63.397362"
       y2="5.4675598"
       id="linearGradient2407"
       xlink:href="#linearGradient4873"
       gradientUnits="userSpaceOnUse"
       gradientTransform="matrix(1.0862728,0,0,1.0862481,-56.566568,14.813596)" />
  </defs>
  <g
     id="layer1">
    <path
       d="M 11.000044,0.50174288 C 5.2074911,0.50174288 0.50182712,5.2074045 0.50182712,10.999957 C 0.50182712,16.792511 5.2074911,21.498176 11.000044,21.498173 C 16.792594,21.498173 21.498263,16.792511 21.498257,10.999957 C 21.498257,5.2074045 16.792594,0.50174288 11.000044,0.50174288 z"
       id="path2555"
       style="fill:url(#radialGradient2410);fill-opacity:1;stroke:url(#linearGradient2412);stroke-width:1.00365424;stroke-linecap:round;stroke-linejoin:round;stroke-miterlimit:4;stroke-dasharray:none;stroke-dashoffset:0;stroke-opacity:1" />
    <path
       d="M 20.500041,10.999621 C 20.500041,16.246495 16.246432,20.499957 11.000162,20.499957 C 5.7534095,20.499957 1.500042,16.246448 1.500042,10.999621 C 1.500042,5.7529897 5.7534095,1.4999586 11.000162,1.4999586 C 16.246432,1.4999586 20.500041,5.7529897 20.500041,10.999621 L 20.500041,10.999621 z"
       id="path2463"
       style="opacity:0.4;fill:none;fill-opacity:1;fill-rule:nonzero;stroke:url(#linearGradient2407);stroke-width:0.99999994;stroke-miterlimit:4;stroke-dasharray:none;stroke-opacity:1" />
    <path
       d="M 9.5992691,4.2866447 C 9.9312141,7.0970906 10.311439,9.8881939 10.594009,12.709648 C 10.87822,12.709648 11.211566,12.709648 11.495777,12.709648 C 11.73016,10.000157 12.108208,7.3070388 12.38092,4.6009069 C 12.519934,3.960133 12.140367,3.1993342 11.359706,3.0436548 C 10.588298,2.8481691 9.7264421,3.3322535 9.6238681,4.0237289 C 9.6068561,4.1105323 9.5992661,4.1986307 9.5992711,4.2866447 L 9.5992691,4.2866447 z M 9.5008891,15.713125 C 9.4657881,16.549688 10.527781,17.20547 11.434517,16.940248 C 12.312757,16.745973 12.775339,15.789209 12.32524,15.109115 C 11.922323,14.406089 10.740793,14.174455 10.061114,14.71251 C 9.7175481,14.957162 9.4898291,15.322395 9.5008891,15.713126 L 9.5008891,15.713125 z"
       id="path3295"
       style="font-size:62.4582634px;font-style:normal;font-variant:normal;font-weight:normal;font-stretch:normal;text-align:start;line-height:125%;writing-mode:lr-tb;text-anchor:start;opacity:0.2;fill:#000000;fill-opacity:1;stroke:none;stroke-width:0.5;stroke-linecap:round;stroke-linejoin:round;stroke-miterlimit:4;stroke-dasharray:none;stroke-opacity:1;font-family:Georgia" />
    <path
       d="M 9.5992691,5.286645 C 9.9312141,8.097091 10.311439,10.888195 10.594009,13.709649 C 10.87822,13.709649 11.211566,13.709649 11.495777,13.709649 C 11.73016,11.000157 12.108208,8.3070391 12.38092,5.6009073 C 12.519934,4.9601334 12.140367,4.1993346 11.359706,4.0436551 C 10.588298,3.8481696 9.7264421,4.3322537 9.6238681,5.0237293 C 9.6068561,5.1105326 9.5992661,5.198631 9.5992711,5.286645 L 9.5992691,5.286645 z M 9.5008891,16.713126 C 9.4657881,17.549689 10.527781,18.205471 11.434517,17.940248 C 12.312757,17.745973 12.775339,16.789209 12.32524,16.109116 C 11.922323,15.40609 10.740793,15.174456 10.061114,15.712511 C 9.7175481,15.957163 9.4898291,16.322396 9.5008891,16.713127 L 9.5008891,16.713126 z"
       id="text2315"
       style="font-size:62.4582634px;font-style:normal;font-variant:normal;font-weight:normal;font-stretch:normal;text-align:start;line-height:125%;writing-mode:lr-tb;text-anchor:start;fill:#ffffff;fill-opacity:1;stroke:none;stroke-width:0.5;stroke-linecap:round;stroke-linejoin:round;stroke-miterlimit:4;stroke-dasharray:none;stroke-opacity:1;font-family:Georgia" />
  </g>
</svg>

<?xml version="1.0" encoding="UTF-8" standalone="no"?>
<!-- Created with Inkscape (http://www.inkscape.org/) -->
<svg id="svg2" xmlns="http://www.w3.org/2000/svg" height="22" width="22" version="1.0" xmlns:xlink="http://www.w3.org/1999/xlink">
 <defs id="defs4">
  <linearGradient id="linearGradient2412" y2="3.0816" gradientUnits="userSpaceOnUse" x2="18.379" gradientTransform="matrix(.51604 0 0 .51604 -1.3849 -1.385)" y1="44.98" x1="18.379">
   <stop id="stop2788" style="stop-color:#1f4b6a" offset="0"/>
   <stop id="stop2790" style="stop-color:#4083c2" offset="1"/>
  </linearGradient>
  <radialGradient id="radialGradient2410" gradientUnits="userSpaceOnUse" cy="3.99" cx="23.896" gradientTransform="matrix(0 1.2316 -1.6257 0 17.487 -29.721)" r="20.397">
   <stop id="stop2778" style="stop-color:#8badea" offset="0"/>
   <stop id="stop2780" style="stop-color:#6396cd" offset=".26238"/>
   <stop id="stop2782" style="stop-color:#3b7caf" offset=".66094"/>
   <stop id="stop2784" style="stop-color:#194c70" offset="1"/>
  </radialGradient>
  <linearGradient id="linearGradient2407" y2="5.4676" gradientUnits="userSpaceOnUse" x2="63.397" gradientTransform="matrix(1.0863 0 0 1.0862 -56.567 14.814)" y1="-12.489" x1="63.397">
   <stop id="stop4875" style="stop-color:#fff" offset="0"/>
   <stop id="stop4877" style="stop-color:#fff;stop-opacity:0" offset="1"/>
  </linearGradient>
 </defs>
 <g id="layer1">
  <path id="path2555" style="stroke-linejoin:round;stroke:url(#linearGradient2412);stroke-linecap:round;stroke-width:1.0037;fill:url(#radialGradient2410)" d="m11 0.50174c-5.7925 0-10.498 4.7057-10.498 10.498-0.00017 5.793 4.7055 10.498 10.498 10.498 5.793 0 10.498-4.705 10.498-10.498 0-5.7926-4.705-10.498-10.498-10.498z"/>
  <path id="path2463" style="opacity:.4;stroke:url(#linearGradient2407);fill:none" d="m20.5 11c0 5.246-4.254 9.5-9.5 9.5-5.2466 0-9.5-4.254-9.5-9.5 0-5.247 4.2534-9.5 9.5-9.5 5.246 0 9.5 4.253 9.5 9.5z"/>
  <path id="path3295" style="opacity:.2" d="m9.5993 4.2866c0.3319 2.8105 0.7117 5.6016 0.9947 8.4234h0.902c0.234-2.71 0.612-5.403 0.885-8.1091 0.139-0.6408-0.241-1.4016-1.021-1.5572-0.772-0.1955-1.6336 0.2886-1.7361 0.98-0.017 0.0868-0.0246 0.1749-0.0246 0.2629zm-0.0984 11.426c-0.0351 0.837 1.0271 1.492 1.9341 1.227 0.878-0.194 1.34-1.151 0.89-1.831-0.403-0.703-1.584-0.935-2.264-0.396-0.3435 0.244-0.5712 0.609-0.5601 1z"/>
  <path id="text2315" style="fill:#fff" d="m9.5993 5.2866c0.3319 2.8105 0.7117 5.6014 0.9947 8.4234h0.902c0.234-2.71 0.612-5.403 0.885-8.1091 0.139-0.6408-0.241-1.4016-1.021-1.5572-0.772-0.1955-1.6336 0.2886-1.7361 0.98-0.017 0.0868-0.0246 0.1749-0.0246 0.2629zm-0.0984 11.426c-0.0351 0.837 1.0271 1.492 1.9341 1.227 0.878-0.194 1.34-1.151 0.89-1.831-0.403-0.703-1.584-0.935-2.264-0.396-0.3435 0.244-0.5712 0.609-0.5601 1z"/>
 </g>
</svg>
